!!!!SEGMENT: artfugue-002.krn
!!!COM: Bach, Johann Sebastian
!!!CDT: 1685/03/31-1750/07/28
!!!OPR@@DE: Die Kunst der Fuge
!!!OPR@EN: The Art of the Fugue
!!!OTL: Contrapunctus 2, a 4.
!!!SCA: BWV 1080
!!!voices: 4
!!!AGN: Simple fugue
**kern	**kern	**kern	**kern
*part4	*part3	*part2	*part1
*staff4	*staff3	*staff2	*staff1
*I"	*I"	*I"	*I"
*clefF4	*clefC4	*clefC3	*clefC1
*mclefF4	*mclefGv2	*mclefG2	*mclefG2
*k[b-]	*k[b-]	*k[b-]	*k[b-]
*d:	*d:	*d:	*d:
*M2/2	*M2/2	*M2/2	*M2/2
*met(c|)	*met(c|)	*met(c|)	*met(c|)
*mmet(c|)	*mmet(c|)	*mmet(c|)	*mmet(c|)
*MM100	*MM100	*MM100	*MM100
=1	=1	=1	=1
2D	1r	1r	1r
2A	.	.	.
=2	=2	=2	=2
2F	1r	1r	1r
2D	.	.	.
=3	=3	=3	=3
2C#X	1r	1r	1r
4D	.	.	.
4E	.	.	.
=4	=4	=4	=4
[2F	1r	1r	1r
8.FL]	.	.	.
(16GK	.	.	.
8.F	.	.	.
16EJk)	.	.	.
=5	=5	=5	=5
(8.DL>	2A	1r	1r
16EK	.	.	.
8.D)	.	.	.
[16CJk	.	.	.
(8.CL]	2d	.	.
16DK	.	.	.
8.C)	.	.	.
[16BBnJk	.	.	.
=6	=6	=6	=6
(8.BBL]	2c	1r	1r
16AAK	.	.	.
8.BBn	.	.	.
16CJk)	.	.	.
(8.DL	2A	.	.
16EK	.	.	.
8.F	.	.	.
16DJk)	.	.	.
=7	=7	=7	=7
(8.EL	2G#X	1r	1r
16FK	.	.	.
8.E	.	.	.
16DJk)	.	.	.
(8.CL	4A	.	.
16BBnK	.	.	.
8.AA	4Bn	.	.
16GG#XJk)	.	.	.
!!LO:LB:g=original
=8	=8	=8	=8
(8.AAL	[2c	1r	1r
16AK	.	.	.
8.G#X	.	.	.
16AJk)	.	.	.
4D	8.cL]	.	.
.	16dK	.	.
[4Gn	8.c	.	.
.	16B-Jk	.	.
=9	=9	=9	=9
(8.GL]	[2A	2d	1r
16FK	.	.	.
8.E	.	.	.
16DJk)	.	.	.
2C#X	8.AL]	2a	.
.	(16gK	.	.
.	8.f	.	.
.	16eJk)	.	.
=10	=10	=10	=10
4D/	(8.dL	2f	1r
.	16cK	.	.
4DD	8.B-	.	.
.	16AJk)	.	.
8.GGL	(8.B-L	2d	.
16AAJk	16AK	.	.
[4BB-	8.G	.	.
.	16FJk)	.	.
=11	=11	=11	=11
8.BB-L]	2E	2c#X	1r
(16BB-K	.	.	.
8.AA	.	.	.
16GGJk)	.	.	.
4FF	8r	4d	.
.	16r	.	.
.	16AKL	.	.
4EE	8.Bn	4e	.
.	16c#XJk	.	.
=12	=12	=12	=12
8.DDL	2.d	[2f	1r
(16DK	.	.	.
8.E	.	.	.
16FJk)	.	.	.
(8.GL	.	8.fL]	.
16B-K	.	16gK	.
8.A	4c#X	8.f	.
16GJk)	.	16eJk	.
=13	=13	=13	=13
(8.FL	4.d	(8.dL	2a
16GK	.	16eK	.
8.F	.	8.f	.
.	16r	.	.
16EJk)	16e	16gJk)	.
(8.DL	2f	[2a	2dd
16EK	.	.	.
8.F	.	.	.
16GJk)	.	.	.
!!LO:LB:g=original
=14	=14	=14	=14
2A	4e	8.aL]	2cc
.	.	16gK	.
.	2c	8.f	.
.	.	[16eJk	.
[2F	.	8.eL]	2a
.	.	16fK	.
.	4A	8.e	.
.	.	[16dJk	.
=15	=15	=15	=15
8.FL]	2Bn	8.dL]	2g#X
16FK	.	16dK	.
8.E	.	8.e	.
16DJk	.	16fJk	.
4C	8r	4e	4a
.	16r	.	.
.	16EKL	.	.
4BBn	8.F#X	4d	4bn
.	16G#XJk	.	.
=16	=16	=16	=16
8.r	2.A	4c	[2cc
16AAKL	.	.	.
8.BBn	.	4e	.
16CJk	.	.	.
4D	.	4f	8.ccL]
.	.	.	16ddK
4E	4G#X	[4e	8.cc
.	.	.	16bnJk
=17	=17	=17	=17
[2F	4A	8.eL]	[1a
.	.	16c#XK	.
.	8.BnL	8.d	.
.	16c#XJk	16eJk	.
8.FL]	4d	4f	.
16EK	.	.	.
8.D	[4G	[4e	.
16C#Jk	.	.	.
=18	=18	=18	=18
[2D/	8.GL]	8.eL]	1a]
.	16GK	16eK	.
.	8.F	8.d	.
.	16EJk	16c#XJk	.
8.DL]	4F	4d	.
16CK	.	.	.
8.BB-	[4F#X	[4cn	.
16AAJk	.	.	.
!!LO:LB:g=original
=19	=19	=19	=19
[2BB-	8.F#XL]	4c]	[1d
.	16DK	.	.
.	8.E	8.B-L	.
.	.	.	.
.	16F#XJk	16AJk	.
8.BB-L]	4G	4B-	.
16AAK	.	.	.
8.GG	[4C	[4A	.
16FF#XJk	.	.	.
=20	=20	=20	=20
[2.GG	8.CL]	8.AL]	1d_
.	16AAK	16F#XK	.
.	8.BB-	8.G	.
.	16CJk	16AJk	.
.	8.DL	4B-	.
.	16C#XJk	.	.
8.GGL]	4D	4A	.
16FFJk	.	.	.
=21	=21	=21	=21
[1EE	4E	4G#X	8.dL]
.	.	.	(16c#XK
.	4r	4r	8.d
.	.	.	16fJk)
.	2r	2r	8.eL
.	.	.	(16dK
.	.	.	8.g#X
.	.	.	16aJk)
=22	=22	=22	=22
2EE]	2r	2r	8.bnL
.	.	.	16ccK
.	.	.	8.dd
.	.	.	[16fJk
2E	2G#X	2Bn	8.fL]
.	.	.	32eLL
.	.	.	32dJJJ
.	.	.	8.c#LX
.	.	.	16dJk
=23	=23	=23	=23
4AA	4E	8.A	4c#X
.	.	16eLK	.
4r	4r	8.f	4r
.	.	16gJk	.
2r	8r	2a	2r
.	16r	.	.
.	16AKL	.	.
.	8.Bn	.	.
.	16c#XJk	.	.
!!LO:LB:g=original
=24	=24	=24	=24
8.r	4d	2f	1r
16DKL	.	.	.
8.E	2c	.	.
16FJk	.	.	.
8.GL	.	2d	.
16AK	.	.	.
8.G	[4B-	.	.
16FJk	.	.	.
=25	=25	=25	=25
8.EL	8.B-]L	2c#X	1r
16B-K	16GK	.	.
8.A	8.F	.	.
16GJk	16EJk	.	.
8.FL	[2A	4d	.
16EK	.	.	.
8.D	.	4e	.
16C#XJk	.	.	.
=26	=26	=26	=26
4D	8.AL]	[2f	2a
.	16dK	.	.
4F	8.c#X	.	.
.	16dJk	.	.
4BBn	4G#X	8.fL]	2dd
.	.	16aK	.
4E	[4BnX	8.g#X	.
.	.	16f#XJk	.
=27	=27	=27	=27
2AA	8.BL]	[2e	2cc
.	16EK	.	.
.	8.A	.	.
.	16GJk	.	.
[2D/	[2F	8.eL]	2a
.	.	16AK	.
.	.	8.d	.
.	.	16cJk	.
=28	=28	=28	=28
8.DL]	4F]	2Bn	2g#X
16BBnK	.	.	.
8.E	4E	.	.
16DJk	.	.	.
4C	2r	8.r	4a
.	.	16eKL	.
4BB	.	8.f#X	4bn
.	.	16g#XJk	.
!!LO:LB:g=original
=29	=29	=29	=29
4AA	8.r	2.a	[2cc
.	16gKL	.	.
4r	8.f	.	.
.	16eJk	.	.
2r	4d#X	.	8.ccL]
.	.	.	16ddK
.	4e	4g#X	8.cc
.	.	.	16bnJk
=30	=30	=30	=30
1r	2A	8.aL	4cc
.	.	16gnK	.
.	.	8.f	[4aa
.	.	16eJk	.
.	4Bn	4d	8.aaL]
.	.	.	16ggK
.	4c#X	4g	8.ff
.	.	.	[16eeJk
=31	=31	=31	=31
2D	2d	2f	8.eeL]
.	.	.	16ffK
.	.	.	8.ee
.	.	.	[16ddJk
2A	2r	2e	8.ddL]
.	.	.	16eeK
.	.	.	8.dd
.	.	.	16cc#XJk
=32	=32	=32	=32
2F	8r	2d	2dd
.	16r	.	.
.	16AKL	.	.
.	8.Bn	.	.
.	16c#XJk	.	.
2D	8.dL	2r	2r
.	16eK	.	.
.	8.f	.	.
.	16dJk	.	.
=33	=33	=33	=33
2C#X	4e	8r	1r
.	.	16r	.
.	.	16b-KL	.
.	4E	8.a	.
.	.	16gJk	.
4D	4F	8.fL	.
.	.	16eK	.
4E	4G	8.d	.
.	.	16c#XJk	.
!!LO:LB:g=original
=34	=34	=34	=34
[2F	4A	4d	8r
.	.	.	16r
.	.	.	16aaKL
.	4r	4dd	8.gg#X
.	.	.	16aaJk
8.FL]	2r	4bn	4dd
16GK	.	.	.
8.F	.	4cc#X	[4ggn
16EJk	.	.	.
=35	=35	=35	=35
4D	4r	4dd	8.ggL]
.	.	.	16ffK
4r	[4d	4r	8.ee
.	.	.	16ddJk
2r	8.dL]	4r	4ee
.	16cK	.	.
.	8.B-	[4cc	4aa
.	16AJk	.	.
=36	=36	=36	=36
4r	4B-	8.ccL]	4dd
.	.	16b-K	.
[4G	4Bn	8.a	4ee
.	.	16gJk	.
8.GL]	4c#X	2a	4e
16FK	.	.	.
8.E	[4d	.	4f
16DJk	.	.	.
=37	=37	=37	=37
2E	8.dL]	4g#X	4e
.	16cnK	.	.
.	8.Bn	4cc	[4ee
.	16AJk	.	.
2r	4B	4f#X	8.eeL]
.	.	.	16ddK
.	4e	4g#X	8.cc
.	.	.	16bnJk
=38	=38	=38	=38
1r	2A	8.aL	8.ccL
.	.	16b-XK	16ddJk
.	.	8.a	[4ee
.	.	16gJk	.
.	2d	8.fL	8.eeL]
.	.	16aK	16ffK
.	.	8.g	8.ee
.	.	[16fJk	16ddJk
!!LO:LB:g=original
=39	=39	=39	=39
1r	2c	8.fL]	4aa
.	.	16eK	.
.	.	8.f#X	4r
.	.	16g#XJk	.
.	2A	8.aL	2r
.	.	16bnK	.
.	.	8.cc	.
.	.	16aJk	.
=40	=40	=40	=40
8.r	2G#X	[2bn	1r
16FKL	.	.	.
8.E	.	.	.
16DJk	.	.	.
4C	4A	8.bL]	.
.	.	16aK	.
[4F	4Bn	8.g#X	.
.	.	16aJk	.
=41	=41	=41	=41
4F]	[2c	8.d#XL	8.r
.	.	16AJk	16eeKL
2F#X	.	2a	8.dd#X
.	.	.	16eeJk
.	8.cL]	.	4a
.	16dK	.	.
4G#X	8.c	[4e	[4ddn
.	16BnJk	.	.
=42	=42	=42	=42
2A	[2A/	4e]	8.ddL]
.	.	.	16ccK
.	.	4f	8.b-X
.	.	.	16aJk
2r	8.AL]	4e	[2b-
.	16GK	.	.
.	8.F	4g	.
.	16EJk	.	.
=43	=43	=43	=43
1r	4F	8.cL	8.b-L]
.	.	16fK	16aK
.	4B-	8.e	8.g
.	.	[16dJk	16fJk
.	4E	8.dL]	[2g
.	.	16eK	.
.	4A	8.d	.
.	.	16c#XJk	.
!!LO:LB:g=original
=44	=44	=44	=44
1r	4D	2.d	8.gL]
.	.	.	16fK
.	8.EL	.	8.g
.	16FJk	.	16aJk
.	8.GL	.	8.b-L
.	16AJk	.	16ccK
.	[4B-	4g	8.dd
.	.	.	16eeJk
=45	=45	=45	=45
1r	8.B-]L	[2c/	2ff
.	16AK	.	.
.	8.G	.	.
.	16FJk	.	.
.	2E	8.cL]	2ccc
.	.	16B-K	.
.	.	8.A	.
.	.	16GJk	.
=46	=46	=46	=46
1r	4F	8.FL	2aa
.	.	16fK	.
.	4r	8.g	.
.	.	16aJk	.
.	4r	8.b-L	2ff
.	.	16ccK	.
.	[4B-	8.dd	.
.	.	16b-Jk	.
=47	=47	=47	=47
1r	8.B-L]	4cc	2ee
.	16dK	.	.
.	8.c	4g	.
.	16B-Jk	.	.
.	8.AL	[2cc	4ff
.	16GK	.	.
.	8.F	.	4gg
.	16EJk	.	.
=48	=48	=48	=48
1r	8.FL	2cc]	[2aa
.	16fK	.	.
.	8.e	.	.
.	16fJk	.	.
.	4B-	4dd	8.aaL]
.	.	.	16bb-K
.	[4e-X	8.ccL	8.aa
.	.	16b-Jk	16ggJk
!!LO:LB:g=original
=49	=49	=49	=49
1r	8.e-XL]	2a	2ff#X
.	16e-yXK	.	.
.	8.d	.	.
.	16cJk	.	.
.	8.B-L	2dd	4gg
.	16AK	.	.
.	8.G	.	[4aa
.	16F#XJk	.	.
=50	=50	=50	=50
1r	8.GL	2b-	8.aaL]
.	16AJk	.	16ddK
.	2B-	.	8.gg
.	.	.	16ffJk
.	.	2g	8.ee-XL
.	.	.	16ddK
.	8.AL	.	8.cc
.	16B-Jk	.	16b-Jk
=51	=51	=51	=51
8.r	4c	2f#X	2a
16E-XKL>	.	.	.
8.D	4e-X	.	.
16CJk	.	.	.
8.BB-L	[2d	4g	2r
16AAK	.	.	.
8.GG	.	4a	.
16FF#XJk	.	.	.
=52	=52	=52	=52
8.GGL<	4d]	[2b-	1r
16GK	.	.	.
8.F#X	4d	.	.
16GJk	.	.	.
[2C	4en	8.b-L]	.
.	.	16ccK	.
.	[4f	8.b-	.
.	.	16aJk	.
=53	=53	=53	=53
2C]	8.fL]	4g	1r
.	16fK	.	.
.	8.e-X	4b-	.
.	16dJk	.	.
2F	8.cL	4a	.
.	16B-K	.	.
.	8.A	[4cc	.
.	16GJk	.	.
!!LO:LB:g=original
=54	=54	=54	=54
2D	4F	8.ccL]	1r
.	.	16fK	.
.	4r	8.g	.
.	.	16aJk	.
2BB-	2r	8.b-L	.
.	.	16ccK	.
.	.	8.dd	.
.	.	16b-Jk	.
=55	=55	=55	=55
2AA	4r	2cc	8r
.	.	.	16r
.	.	.	16ggKL
.	4C	.	8.ff
.	.	.	16ee-XJk
4BB-	4D	[2f	8.ddL
.	.	.	16ccK
4C	4E-X	.	8.b-
.	.	.	16aJk
=56	=56	=56	=56
[2D	4F	8.fL]	2b-
.	.	16a-XK	.
.	2B-	8.g	.
.	.	16fJk	.
8.DL]	.	4g	[2ee-X
16E-XK	.	.	.
8.D	4e-X	4an	.
16CJk	.	.	.
=57	=57	=57	=57
8.BB-L	2f	2b-	8.ee-L]
16B-K	.	.	16ddK
8.A	.	.	8.cc#X
16B-Jk	.	.	16ddJk
4E	8r	2r	4g
.	16r	.	.
.	16cKL	.	.
4F#X	8.B-	.	[4ccn
.	16AJk	.	.
=58	=58	=58	=58
[2G	4G	8.r	4cc]
.	.	16gKL	.
.	4e-X	8.f#X	4b-
.	.	16gJk	.
8.GL]	4c#X	4e	[2a
16FnK	.	.	.
8.E	[4d	[4fn	.
16DJk	.	.	.
!!LO:LB:g=original
=59	=59	=59	=59
1B-	8d]	8.fL]	8.aL]
.	8r	.	.
.	.	16dK	16ffK
.	4r	8.c#X	8.gg
.	.	16dJk	16ffJk
.	2r	[2g	8.eeL
.	.	.	16ddK
.	.	.	8.cc#X
.	.	.	16ddJk
=60	=60	=60	=60
4A	4r	4g]	8.cc#XL
.	.	.	16aaK
4r	2d	4f	8.bb-
.	.	.	16aaJk
2r	.	4e	8.ggL
.	.	.	16ffK
.	4c#X	[4a	8.ee
.	.	.	16ffJk
=61	=61	=61	=61
2D	2d	4a]	8.ggL
.	.	.	16ffK
.	.	4r	8.ee
.	.	.	[16ddJk
2A	2e	2r	8.ddL]
.	.	.	16eeK
.	.	.	8.dd
.	.	.	16cc#XJk
=62	=62	=62	=62
2F	4A	8r	4dd
.	.	16r	.
.	.	16b-KL	.
.	8.BnL	8.a	4r
.	16c#XJk	[16gJk	.
2D	2d	8.gL]	4r
.	.	16aK	.
.	.	8.g	[4b-
.	.	16fJk	.
=63	=63	=63	=63
2C#X	4r	4e	8.b-L]
.	.	.	16b-K
.	4E	4A	8.a
.	.	.	16gJk
4D	4F	2B-	8.fL
.	.	.	16eK
4E	4G	.	8.d
.	.	.	16c#XJk
!!LO:LB:g=original
=64	=64	=64	=64
[2F	2A	4A	8.dL
.	.	.	16ddK
.	.	4a	8.ee
.	.	.	16ffJk
8.FL]	2r	4bn	[2gg
16GK	.	.	.
8.F	.	4cc#X	.
16EJk	.	.	.
=65	=65	=65	=65
[2D	8r	4dd	4gg]
.	16r	.	.
.	16AKL	.	.
.	8.Bn	4r	8.ffL
.	16c#XJk	.	16eeJk
8.DL]	4d	2r	4ff
16E-XK	.	.	.
8.D	4F#X	.	4aa
16CJk	.	.	.
=66	=66	=66	=66
[2BB-	4G	8r	2dd
.	.	16r	.
.	.	16gKL	.
.	4r	8.a	.
.	.	16b-Jk	.
8.BB-L]	2r	[2cc	4ee
16CK	.	.	.
8.BB-	.	.	4ff#X
16AAJk	.	.	.
=67	=67	=67	=67
8.GGL	1r	4cc]	2.gg
16DK	.	.	.
8.E	.	8.b-L	.
16F#XJk	.	16aJk	.
8.GL	.	4b-	.
16AK	.	.	.
8.G	.	4a	[4dd
16FnJk	.	.	.
=68	=68	=68	=68
4E	1r	2g	8.ddL]
.	.	.	16eeK
4A	.	.	8.dd
.	.	.	[16ccJk
4D	.	2f	8.ccL]
.	.	.	16ddK
4G	.	.	8.cc
.	.	.	[16b-Jk
!!LO:LB:g=original
=69	=69	=69	=69
2C#X	4r	2e	8.b-L]
.	.	.	16b-K
.	2A	.	8.a
.	.	.	16gJk
2D	.	4d	8.fL
.	.	.	16ccK
.	[4d	[4f	8.b-
.	.	.	16aJk
=70	=70	=70	=70
2E	4d]	8.fL]	4.g#X
.	.	16fJk	.
.	2c	[4e	.
.	.	.	16r
.	.	.	16g#
2F	.	8.eL]	4.a
.	.	16eJk	.
.	[4A	4d	.
.	.	.	16r
.	.	.	16a
=71	=71	=71	=71
2BBn	4A]	4r	8.ddL
.	.	.	16eeJk
.	4G#X	8.r	4ff
.	.	16dd	.
[2C	4A	8.ccL	[2ee
.	.	16bnK	.
.	4Bn	8.a	.
.	.	16g#XJk	.
=72	=72	=72	=72
4C]	[2c	2a	8.eeL]
.	.	.	16aaK
4D	.	.	8.gg#X
.	.	.	16aaJk
2E	8.cL]	4r	8.eeL
.	16dK	.	16ff#XJk
.	8.c#X	[4ee	[4ggn
.	16BnJk	.	.
=73	=73	=73	=73
4F	2A	8.eeL]	4gg]
.	.	16aK	.
4D	.	8.dd	2ff
.	.	16ccJk	.
[2G	[2B-X	8.b-L	.
.	.	16aK	.
.	.	8.g	8.eeL
.	.	16fJk	16ddJk
!!LO:LB:g=original
=74	=74	=74	=74
4G]	8.B-L]	[2e	4cc#X
.	16B-K	.	.
4C#X	8.A	.	4ee
.	16GJk	.	.
4D	8.FL	8.eL]	[2a
.	16EK	16gK	.
4AA	8.D	8.f	.
.	16C#XJk	16eJk	.
=75	=75	=75	=75
2.BB-	4D	8.dL	4a]
.	.	16cK	.
.	8.EL	8.B-	2d
.	16F#XJk	16AJk	.
.	8.GL	2B-	.
.	16FnK	.	.
4GG	8.E	.	[4g
.	16DJk	.	.
=76	=76	=76	=76
[1AA	2C#X	2.A	8.gL]
.	.	.	16b-K
.	.	.	8.a
.	.	.	[16gJk
.	2D	.	8.gL]
.	.	.	16aK
.	.	4Bn	8.g
.	.	.	[16fJk
=77	=77	=77	=77
1AA_	2E	2c#X	8.fL]
.	.	.	16gK
.	.	.	8.f
.	.	.	[16eJk
.	2F	2G#X	8.eL]
.	.	.	16fK
.	.	.	8.e
.	.	.	[16dJk
=78	=78	=78	=78
2AA_	2E	2A	8.dL]
.	.	.	16BnK
.	.	.	8.c#X
.	.	.	16eJk
8.AAL]	4r	4r	8.AL
16BB-K	.	.	16gK
8.AA	4A	4c#X	8.f
[16GGJk	.	.	16eJk
!!LO:LB:g=original
=79	=79	=79	=79
8.GGL]	2A	8.dL	2d
16AAK	.	16fK	.
8.GG	.	8.e	.
[16FFJk	.	16dJk	.
8.FFL]	2r	8.c#XL	2a
16GGK	.	16AK	.
8.FF	.	8.Bn	.
16EEJk	.	16c#Jk	.
=80	=80	=80	=80
4DD	8r	4d	2f
.	16r	.	.
.	16DKL	.	.
4r	8.E	2cn	.
.	16FJk	.	.
8r	8.GL	.	2d
16r	.	.	.
16EEKL	16AK	.	.
8.FF	8.G	[4B-	.
16GGJk	16FJk	.	.
=81	=81	=81	=81
2AA	8.EL	8.B-L]	2c#X
.	16GK	16B-K	.
.	8.F	8.A	.
.	16EJk	16GJk	.
8.r	2D	4F	4d
16BB-KL	.	.	.
8.AA	.	4B-	4e
16GGJk	.	.	.
=82	=82	=82	=82
8.AAL	4C#X	2A	[2f
16FFK	.	.	.
8.EE	2D	.	.
16DDJk	.	.	.
4GG	.	4B-	8.fL]
.	.	.	16gK
4AA	4C#	[4A	8.f
.	.	.	16eJk
=83	=83	=83	=83
8.BB-L	4D	8.AL]	[1d
16CK	.	16F#XK	.
8.BB-	8.EL	8.G	.
16AAJk	16F#XJk	16AJk	.
8.GGL	[2G	[2B-	.
16AAK	.	.	.
8.BB-	.	.	.
16GGJk	.	.	.
=84	=84	=84	=84
2D/	8.GL]	8.B-L]	1d;]
.	16F#XK	16AK	.
.	8.G	8.B-	.
.	16EJk	16GJk	.
2DD;	2F#;	2A;	.
==	==	==	==
*-	*-	*-	*-
!!!RDF**kern: > = above
!!!RDF**kern: < = below
!!!system-decoration: [(s1,s2,s3,s4)]
!!!URL-pdf: https://vmirror.imslp.org/files/imglnks/usimg/8/88/IMSLP504269-PMLP05843-BGA-25.1.pdf#page=6 @{SMS1}, page 6
!!!URL-pdf: https://s9.imslp.org/files/imglnks/usimg/1/1d/IMSLP469177-PMLP5843-Bach,_J.S._-_The_Art_of_the_Fugue.pdf#page=5 @{SMS2}, page 5
!!!URL-youtube: https://www.youtube.com/watch?v=OMtjlaDEMdI&t=214s Netherlands Bach Society/Malinowski
!!!URL-youtube: https://www.youtube.com/watch?v=N6sUlZa-IrU&t=214s Netherlands Bach Society
!!!SMS: @{SMS1}
!!!SMS1: Bach-Gesellschaft Ausgabe, Band 25.1 Leipzig: Breitkopf und Härtel, 1878. Plate B.W. XXV (1).
!!!SMS2: Bach-Gesellschaft Ausgabe, Band 47 Leipzig: Breitkopf und Härtel, 1926. Plate B.W. XLVII.
!!!PED: Wilhelm Rust
!!!PED-ODT: 1822-1892
!!!ONB: Die Kunst der Fuge nach dem Berliner Autograph in Anordnung und Lesarten
!!!ENC: Craig Stuart Sapp
!!!END: 2024/03/21
!!!EED: Craig Stuart Sapp
!!!EEV: 2024/03/28
!!!title: @{OPR} (@{SCA}), @{OTL}
!!!filter-keyboard: autostem -r | satb2gs | shed -e s/clefC./clefG2/I
!!!filter-modern: modori -m | autostem -r
